icons/lotus.svg

<?xml version="1.0" encoding="UTF-8"?><svg xmlns="http://www.w3.org/2000/svg" viewBox="0 0 50 50"><g id="uuid-afe7be43-814a-4c7b-845e-9ff285ff1e52"><path d="M48.39,24.55c-2.36-1.13-5.05-1.58-7.77-1.4,.49-2.68,.35-5.4-.5-7.87-.07-.22-.28-.36-.51-.34-3.31,.25-6.53,1.67-9.21,3.97-.98-3.32-2.85-6.23-5.43-8.23-.18-.14-.43-.14-.61,0-2.58,2-4.45,4.91-5.43,8.23-2.68-2.3-5.9-3.72-9.21-3.97-.24-.02-.44,.12-.51,.34-.84,2.47-.99,5.19-.49,7.87-2.73-.18-5.41,.27-7.77,1.4-.21,.1-.32,.32-.28,.55,.94,4.83,4.42,9.19,9.31,11.66,2.65,1.33,5.49,2,8.25,2,1.85,0,3.65-.31,5.34-.92,.2,.02,.4,.05,.6,.06h1.01c.2-.02,.4-.04,.6-.06,1.68,.61,3.49,.92,5.34,.92,2.76,0,5.6-.67,8.25-2,4.89-2.46,8.37-6.82,9.31-11.66,.04-.22-.07-.45-.28-.55Zm-9.49,11.31c-3.54,1.78-7.44,2.3-10.95,1.55,3.87-1.07,7.44-3.7,9.88-7.39,1.21-1.84,2.07-3.83,2.57-5.85,2.52-.21,5,.15,7.2,1.12-.99,4.38-4.22,8.31-8.7,10.57Zm-28.49,0c-4.49-2.26-7.71-6.19-8.7-10.57,2.2-.97,4.69-1.33,7.21-1.12,.5,2.03,1.35,4.02,2.57,5.85,2.44,3.69,6.01,6.33,9.88,7.39-3.51,.74-7.41,.23-10.95-1.55Zm-.39-19.89c3.11,.33,6.12,1.77,8.6,4.03-.31,1.36-.49,2.79-.49,4.24,0,4.89,1.87,9.45,5.04,12.52-4.22-.66-8.22-3.31-10.85-7.29-2.77-4.19-3.62-9.2-2.3-13.5Zm14.64-4.26c3.47,2.85,5.53,7.5,5.53,12.53s-2.06,9.67-5.53,12.53c-3.47-2.85-5.52-7.5-5.52-12.53s2.06-9.67,5.52-12.53Zm12.34,17.76c-2.63,3.98-6.63,6.63-10.85,7.29,3.17-3.07,5.04-7.63,5.04-12.52,0-1.45-.17-2.87-.49-4.24,2.48-2.25,5.49-3.7,8.6-4.03,1.32,4.29,.47,9.31-2.3,13.5Z"/></g><g id="uuid-234a5cd7-2dae-4b51-af09-ead388c0b46f"><text transform="translate(0 55.08)" font-family="Roboto-Regular, Roboto" font-size="6"><tspan x="0" y="0">lotus</tspan></text></g></svg>

<svg xmlns="http://www.w3.org/2000/svg" viewBox="0 0 50 50"><defs><style>.cls-1{font-size:6px;font-family:Roboto-Regular, Roboto;}</style></defs><g id="ICONS"><path d="M48.39,24.55a15.59,15.59,0,0,0-7.77-1.4,15.64,15.64,0,0,0-.5-7.88.51.51,0,0,0-.51-.34,16.12,16.12,0,0,0-9.21,4A16.09,16.09,0,0,0,25,10.67a.51.51,0,0,0-.62,0,16.09,16.09,0,0,0-5.43,8.23,16.12,16.12,0,0,0-9.21-4,.5.5,0,0,0-.51.34,15.75,15.75,0,0,0-.5,7.88,15.59,15.59,0,0,0-7.77,1.4.49.49,0,0,0-.28.54A17.09,17.09,0,0,0,10,36.75a18.43,18.43,0,0,0,8.25,2,15.69,15.69,0,0,0,5.34-.92l.6.07h1l.61-.07a15.65,15.65,0,0,0,5.34.92,18.49,18.49,0,0,0,8.25-2,17.08,17.08,0,0,0,9.31-11.66A.49.49,0,0,0,48.39,24.55ZM38.91,35.86a16.85,16.85,0,0,1-11,1.55A17.68,17.68,0,0,0,37.83,30a18.69,18.69,0,0,0,2.57-5.86,14.85,14.85,0,0,1,7.21,1.13A16.2,16.2,0,0,1,38.91,35.86Zm-28.49,0A16.19,16.19,0,0,1,1.71,25.29a14.85,14.85,0,0,1,7.21-1.13A18.69,18.69,0,0,0,11.49,30a17.72,17.72,0,0,0,9.88,7.39A16.81,16.81,0,0,1,10.42,35.86ZM10,16a15.28,15.28,0,0,1,8.6,4,19.2,19.2,0,0,0-.48,4.24,17.38,17.38,0,0,0,5,12.52,16.3,16.3,0,0,1-10.86-7.29A16.2,16.2,0,0,1,10,16Zm14.64-4.26a16.16,16.16,0,0,1,5.53,12.52,16.17,16.17,0,0,1-5.53,12.53,16.16,16.16,0,0,1-5.52-12.53A16.15,16.15,0,0,1,24.66,11.71ZM37,29.46a16.31,16.31,0,0,1-10.85,7.29,17.42,17.42,0,0,0,5-12.52A19.21,19.21,0,0,0,30.7,20a15.28,15.28,0,0,1,8.6-4A16.16,16.16,0,0,1,37,29.46Z"/></g><g id="LABELS"><text class="cls-1" transform="translate(0.01 55.08)">lotus</text></g></svg>
